X:1
T:Malden, LM
T:Malden, LM
T:Sabbath School Melodist, 1850
T:Public Domain Courtesy of the Cyber Hymnal™
C:Sabbath School Melodist, 1850
Z:Public Domain
Z:Courtesy of the Cyber Hymnal™
%%score ( 1 2 ) 3
L:1/8
Q:1/4=105
M:3/4
K:E
V:1 treble 
V:2 treble 
V:3 bass 
V:1
 [GB]2 | ([GB]3 [FA]) ([EG][FA]) | [GB]4 [Ac]2 | ([GB]3 [FA]) ([EG][FA]) | [GB]4 [GB]2 | %5
 ([Ac]3 [GB]) ([Ac][GB]) | [GB]4 [EG]2 | ([DF]3 [EG]) [FA]2 | [EG]4 [GB]2 | %9
 ([GB]3 [FA]) ([EG][FA]) | [GB]4 [Ac]2 | ([GB]3 [FA]) ([EG][FA]) | [GB]4 [GB]2 | %13
 [GB]3 [FA] ([EG][FA]) | [EG]4 (EF) | [EG]4 F2 | [B,E]4 |] %17
V:2
 x2 | x6 | x6 | x6 | x6 | x6 | x6 | x6 | x6 | x6 | x6 | x6 | x6 | x6 | x4 E2 | x4 (DB,) | x4 |] %17
V:3
 [E,B,]2 | [E,B,]4 [E,B,]2 | [E,B,]4 [E,A,]2 | [E,B,]4 [E,B,]2 | [E,B,]4 [E,E]2 | [A,E]4 [A,E]2 | %6
 [E,E]4 [E,B,]2 | [B,,B,]4 [B,,B,]2 | [E,B,]4 [E,B,]2 | [E,B,]4 [E,B,]2 | [E,B,]4 [E,A,]2 | %11
 [E,B,]4 [E,B,]2 | [E,B,]4 [E,B,]2 | [E,B,]4 [E,B,]2 | [E,B,]4 [A,,C]2 | [B,,B,]4 [B,,A,]2 | %16
 [E,G,]4 |] %17

